icons/svg/shields/h_white_blue_triangle_shield.svg

<?xml version="1.0" encoding="UTF-8" standalone="no"?>
<!-- Generator: Adobe Illustrator 16.0.4, SVG Export Plug-In . SVG Version: 6.00 Build 0)  -->

<svg
   xmlns:dc="http://purl.org/dc/elements/1.1/"
   xmlns:cc="http://creativecommons.org/ns#"
   xmlns:rdf="http://www.w3.org/1999/02/22-rdf-syntax-ns#"
   xmlns:svg="http://www.w3.org/2000/svg"
   xmlns="http://www.w3.org/2000/svg"
   xmlns:sodipodi="http://sodipodi.sourceforge.net/DTD/sodipodi-0.dtd"
   xmlns:inkscape="http://www.inkscape.org/namespaces/inkscape"
   version="1.1"
   id="Слой_1"
   x="0px"
   y="0px"
   width="20"
   height="20"
   viewBox="0 0 19.999999 20"
   enable-background="new 0 0 17.113 17.143"
   xml:space="preserve"
   inkscape:version="0.48.4 r9939"
   sodipodi:docname="h_white_blue_triangle_shield.svg"><metadata
     id="metadata13"><rdf:RDF><cc:Work
         rdf:about=""><dc:format>image/svg+xml</dc:format><dc:type
           rdf:resource="http://purl.org/dc/dcmitype/StillImage" /><dc:title /></cc:Work></rdf:RDF></metadata><defs
     id="defs11" /><sodipodi:namedview
     pagecolor="#ffffff"
     bordercolor="#666666"
     borderopacity="1"
     objecttolerance="10"
     gridtolerance="10"
     guidetolerance="10"
     inkscape:pageopacity="0"
     inkscape:pageshadow="2"
     inkscape:window-width="1920"
     inkscape:window-height="1004"
     id="namedview9"
     showgrid="false"
     inkscape:zoom="16"
     inkscape:cx="-3.9427359"
     inkscape:cy="8.4984043"
     inkscape:window-x="1680"
     inkscape:window-y="0"
     inkscape:window-maximized="1"
     inkscape:current-layer="Слой_1"
     fit-margin-top="0"
     fit-margin-left="0"
     fit-margin-right="0"
     fit-margin-bottom="0"
     inkscape:showpageshadow="false"
     inkscape:snap-grids="true"
     inkscape:snap-object-midpoints="true"
     inkscape:snap-center="true"
     inkscape:snap-smooth-nodes="true"
     inkscape:snap-midpoints="true"
     inkscape:object-nodes="true"><inkscape:grid
       type="xygrid"
       id="grid2991"
       empspacing="5"
       visible="true"
       enabled="true"
       snapvisiblegridlinesonly="true"
       originx="-1.3381215e-05px"
       originy="0.0064353387px" /></sodipodi:namedview><g
     id="g2117"
     transform="matrix(0.08631273,0,0,0.08631273,32.3743,-1.7592673)"
     style="fill:#000000"><g
       id="g2119"
       style="fill:#000000"><g
         id="g2121"
         style="fill:#000000"><path
           inkscape:connector-curvature="0"
           id="path2125"
           style="fill:#000000;stroke:none"
           d="" /></g><g
         id="g2127"
         style="fill:#000000"><path
           inkscape:connector-curvature="0"
           id="path2131"
           style="fill:#000000;stroke:none"
           d="" /></g></g></g><g
     transform="matrix(0.06635536,0,0,0.06635536,28.23946,-2.5870373)"
     id="g1327-1"
     style="fill:#ffffff;stroke:none" /><g
     transform="matrix(0.02288704,0,0,0.02441593,2.961084,3.7328865)"
     id="g1327-2"
     style="fill:#fefefe;fill-opacity:1;stroke:none;opacity:0.6"><path
       transform="matrix(0.91600639,0,0,0.91600639,5.2718346,54.13561)"
       style="fill:#fefefe;fill-opacity:1"
       d="m 333.875,-96.6875 a 66.970754,66.970754 0 0 0 -58,31.75 C 9.9386412,365.89276 -43.34375,439.46875 -43.34375,439.46875 A 66.970754,66.970754 0 0 0 11.1875,545.625 L 649.25,543.6875 a 66.970754,66.970754 0 0 0 54.53125,-105.53125 c 0,0 -16.04061,-22.56883 -314.03125,-503.1875 A 66.970754,66.970754 0 0 0 333.875,-96.6875 z"
       id="path3761"
       inkscape:connector-curvature="0" /></g><path
     style="fill:#64bbff;fill-opacity:1;stroke:none"
     d="m 10.110553,2.0138031 c -0.3841579,-0.00639 -0.7567679,0.084447 -1.0937499,0.28125 -0.336983,0.1968027 -0.641901,0.5835105 -0.84375,0.9321383 -5.475989,9.4607106 -6.53125,11.0312496 -6.53125,11.0312496 -0.239053,0.353544 -0.500565,0.877858 -0.53125,1.3125 -0.03068,0.434643 0.06328,0.862271 0.25,1.25 0.186721,0.387729 0.463366,0.710879 0.8125,0.9375 0.349134,0.226621 0.872531,0.282482 1.28125,0.28125 l 13.1249999,-0.03125 c 0.40544,-0.0015 0.872814,-0.05575 1.21875,-0.28125 0.345937,-0.225499 0.626366,-0.55338 0.8125,-0.9375 0.186133,-0.38412 0.277636,-0.818628 0.25,-1.25 -0.02764,-0.431371 -0.204108,-0.927696 -0.4375,-1.28125 0,0 -0.297931,-0.471133 -6.4375,-11.0312496 -0.195912,-0.3370932 -0.489015,-0.7052437 -0.8125,-0.9008883 -0.323485,-0.1956447 -0.690661,-0.3062185 -1.0625,-0.3125 z M 9.7980531,2.9146914 c 0.093435,-0.010034 0.1878147,-0.010034 0.2812499,0 0.4594,0.00862 0.907749,0.2752108 1.15625,0.6875 6.247274,10.7491076 6.59375,11.2499996 6.59375,11.2499996 0.605711,0.89414 -0.122229,2.389367 -1.15625,2.375 l -13.3749999,0.03125 c -1.0236098,-0.01012 -1.724544,-1.489867 -1.125,-2.375 0,0 1.112232,-1.645666 6.6875,-11.2812496 0.2045557,-0.3547788 0.5537324,-0.6108417 0.9375,-0.6875 z"
     id="path3761-4-9"
     inkscape:connector-curvature="0"
     sodipodi:nodetypes="cscccssccsssccscccccccccc" /></svg>

<svg width="20" height="20" viewBox="0 0 20 20" fill="none" xmlns="http://www.w3.org/2000/svg">
<g opacity="0.6">
<path opacity="0.6" d="M10.0813 2.89221C9.83837 2.88821 9.59861 2.95153 9.38547 3.076C9.17234 3.20047 8.99313 3.38181 8.86537 3.6023C3.29011 13.2379 2.17306 14.8834 2.17306 14.8834C2.02155 15.1074 1.93106 15.3718 1.9116 15.6472C1.89213 15.9227 1.94445 16.1985 2.06276 16.4442C2.18108 16.6899 2.36078 16.8959 2.582 17.0395C2.80323 17.183 3.05735 17.2585 3.31629 17.2576L16.6931 17.2143C16.9498 17.2134 17.2015 17.1374 17.4205 16.9945C17.6396 16.8517 17.8178 16.6474 17.9357 16.4041C18.0536 16.1607 18.1066 15.8875 18.0891 15.6142C18.0716 15.341 17.9841 15.078 17.8363 14.8541C17.8363 14.8541 17.5 14.3493 11.2527 3.6002C11.1287 3.38695 10.9564 3.21036 10.7518 3.08665C10.5471 2.96294 10.3165 2.89608 10.0813 2.89221V2.89221Z" fill="#FEFEFE"/>
</g>
<path d="M10.1106 2.0138C9.72639 2.00741 9.35378 2.09825 9.0168 2.29505C8.67982 2.49186 8.3749 2.87856 8.17305 3.22719C2.69706 12.6879 1.6418 14.2584 1.6418 14.2584C1.40275 14.612 1.14124 15.1363 1.11055 15.5709C1.07987 16.0056 1.17383 16.4332 1.36055 16.8209C1.54727 17.2087 1.82392 17.5318 2.17305 17.7584C2.52219 17.9851 3.04558 18.0409 3.4543 18.0397L16.5793 18.0084C16.9847 18.0069 17.4521 17.9527 17.7981 17.7272C18.144 17.5017 18.4244 17.1738 18.6106 16.7897C18.7967 16.4056 18.8882 15.9711 18.8606 15.5397C18.8329 15.1083 18.6564 14.612 18.4231 14.2584C18.4231 14.2584 18.1251 13.7873 11.9856 3.22719C11.7896 2.8901 11.4965 2.52195 11.1731 2.3263C10.8496 2.13066 10.4824 2.02008 10.1106 2.0138V2.0138ZM9.79805 2.91469C9.89149 2.90466 9.98587 2.90466 10.0793 2.91469C10.5387 2.92331 10.9871 3.1899 11.2356 3.60219C17.4828 14.3513 17.8293 14.8522 17.8293 14.8522C18.435 15.7463 17.7071 17.2416 16.6731 17.2272L3.29805 17.2584C2.27444 17.2483 1.57351 15.7686 2.17305 14.8834C2.17305 14.8834 3.28528 13.2378 8.86055 3.60219C9.06511 3.24741 9.41428 2.99135 9.79805 2.91469V2.91469Z" fill="#64BBFF"/>
</svg>
